svg/blobs-icons/no-decorations/pear.svg

<svg xmlns="http://www.w3.org/2000/svg" xmlns:xlink="http://www.w3.org/1999/xlink" preserveAspectRatio="xMidYMid" width="160" height="217" viewBox="0 0 160 217"><defs><style>.cls-3{fill:#0cb04a}.cls-4{fill:#020403;opacity:.35}.cls-5{fill:#fff}.cls-6{fill:#142a3b}.cls-7{fill:#2476ff}</style></defs><g id="group-166svg"><path d="M129.81 99.239c21.128 11.755 30.46 35.571 30.46 57.659.0 35.019-35.155 66.28-80.138 58.891C37.739 223.173.005 191.917.005 156.898c0-21.335 10.829-45.668 30.806-58.044 4.833-28.96 23.21-58.081 49.321-50.289 30.725-8.936 45.972 21.318 49.678 50.674z" id="path-1" class="cls-3" fill-rule="evenodd"/><path d="M129.81 99.239c-3.511-27.818-17.396-56.419-44.984-51.738 20.075 3.807 30.58 28.058 33.57 51.738 21.127 11.755 30.46 35.57 30.46 57.659.0 29.952-25.726 57.131-61.313 59.754C128.915 219.668 160.27 189.967 160.27 156.898 160.27 134.809 150.938 110.994 129.81 99.239z" id="path-2" class="cls-4" fill-rule="evenodd"/><path d="M45.827 104.976C45.629 104.976 45.429 104.959 45.228 104.927 43.258 104.598 41.929 102.735 42.258 100.766 45.13 83.556 52.599 68.843 61.75 62.362 63.384 61.205 65.636 61.594 66.789 63.221 67.943 64.851 67.558 67.108 65.929 68.26 58.407 73.587 51.915 86.813 49.388 101.956 49.094 103.724 47.561 104.976 45.827 104.976z" id="path-3" class="cls-5" fill-rule="evenodd"/><path d="M80.628 59.659C80.402 59.659 80.171 59.638 79.939 59.594 77.98 59.216 76.697 57.32 77.075 55.359 80.125 39.549 77.128 26.503 77.095 26.373 76.638 24.432 77.839 22.486 79.78 22.024 81.715 21.562 83.666 22.757 84.129 24.701 84.27 25.289 87.531 39.316 84.173 56.73 83.84 58.457 82.325 59.659 80.628 59.659z" id="path-4" class="cls-6" fill-rule="evenodd"/><path d="M49.952 5.564c1.21-1.228 14.269-.189 23.081 8.495 2.227 2.187 5.045 5.107 7.738 8.128C84.585 15.305 90.679 8.704 98.382 4.743 114.04-3.294 132.196.848 133.319 3.02 125.909 30.218 98.498 36.548 84.996 37.601 76.197 41.254 65.426 35.04 58.794 28.513 49.982 19.835 48.742 6.794 49.952 5.564z" id="path-5" class="cls-7" fill-rule="evenodd"/><path d="M127.653.799c-9.342 22.646-33.906 28.213-46.462 29.193-8.798 3.653-19.569-2.563-26.202-9.089-1.422-1.399-2.627-2.917-3.675-4.476 1.408 3.998 3.764 8.427 7.48 12.086C65.427 35.04 76.198 41.254 84.996 37.601c13.502-1.053 40.913-7.383 48.323-34.581C132.96 2.325 130.851 1.434 127.653.799z" id="path-6" class="cls-4" fill-rule="evenodd"/></g></svg>

<svg xmlns="http://www.w3.org/2000/svg" xmlns:xlink="http://www.w3.org/1999/xlink" preserveAspectRatio="xMidYMid" width="160" height="217" viewBox="0 0 160 217">
  <defs>
    <style>

      .cls-3 {
        fill: #0cb04a;
      }

      .cls-4 {
        fill: #020403;
        opacity: 0.35;
      }

      .cls-5 {
        fill: #ffffff;
      }

      .cls-6 {
        fill: #142a3b;
      }

      .cls-7 {
        fill: #2476ff;
      }
    </style>
  </defs>
  <g id="group-166svg">
    <path d="M129.810,99.239 C150.938,110.994 160.270,134.810 160.270,156.898 C160.270,191.917 125.115,223.178 80.132,215.789 C37.739,223.173 0.005,191.917 0.005,156.898 C0.005,135.563 10.834,111.230 30.811,98.854 C35.644,69.894 54.021,40.773 80.132,48.565 C110.857,39.629 126.104,69.883 129.810,99.239 C129.810,99.239 129.810,99.239 129.810,99.239 Z" id="path-1" class="cls-3" fill-rule="evenodd"/>
    <path d="M129.810,99.239 C126.299,71.421 112.414,42.820 84.826,47.501 C104.901,51.308 115.406,75.559 118.396,99.239 C139.523,110.994 148.856,134.809 148.856,156.898 C148.856,186.850 123.130,214.029 87.543,216.652 C128.915,219.668 160.270,189.967 160.270,156.898 C160.270,134.809 150.938,110.994 129.810,99.239 Z" id="path-2" class="cls-4" fill-rule="evenodd"/>
    <path d="M45.827,104.976 C45.629,104.976 45.429,104.959 45.228,104.927 C43.258,104.598 41.929,102.735 42.258,100.766 C45.130,83.556 52.599,68.843 61.750,62.362 C63.384,61.205 65.636,61.594 66.789,63.221 C67.943,64.851 67.558,67.108 65.929,68.260 C58.407,73.587 51.915,86.813 49.388,101.956 C49.094,103.724 47.561,104.976 45.827,104.976 Z" id="path-3" class="cls-5" fill-rule="evenodd"/>
    <path d="M80.628,59.659 C80.402,59.659 80.171,59.638 79.939,59.594 C77.980,59.216 76.697,57.320 77.075,55.359 C80.125,39.549 77.128,26.503 77.095,26.373 C76.638,24.432 77.839,22.486 79.780,22.024 C81.715,21.562 83.666,22.757 84.129,24.701 C84.270,25.289 87.531,39.316 84.173,56.730 C83.840,58.457 82.325,59.659 80.628,59.659 Z" id="path-4" class="cls-6" fill-rule="evenodd"/>
    <path d="M49.952,5.564 C51.162,4.336 64.221,5.375 73.033,14.059 C75.260,16.246 78.078,19.166 80.771,22.187 C84.585,15.305 90.679,8.704 98.382,4.743 C114.040,-3.294 132.196,0.848 133.319,3.020 C125.909,30.218 98.498,36.548 84.996,37.601 C76.197,41.254 65.426,35.040 58.794,28.513 C49.982,19.835 48.742,6.794 49.952,5.564 Z" id="path-5" class="cls-7" fill-rule="evenodd"/>
    <path d="M127.653,0.799 C118.311,23.445 93.747,29.012 81.191,29.992 C72.393,33.645 61.622,27.429 54.989,20.903 C53.567,19.504 52.362,17.986 51.314,16.427 C52.722,20.425 55.078,24.854 58.794,28.513 C65.427,35.040 76.198,41.254 84.996,37.601 C98.498,36.548 125.909,30.218 133.319,3.020 C132.960,2.325 130.851,1.434 127.653,0.799 Z" id="path-6" class="cls-4" fill-rule="evenodd"/>
  </g>
</svg>
